X:1
T:Sumer Is Icumen In
M:6/8
L:1/4
K:Eb
 e d/2 c d/2| e e/2d/2-c/2-B/2| G G/2 A F/2| G3/2 z z/2| E G/2 F A/2|\
 G G/2 F E/2| G B/2 c c/2| B3/2 z z/2| e3/2 c3/2| e3/2 z z/2| B G/2 A F/2|\
 G B/2 A G/2| E G/2 F D/2| E3/2 z z/2| G G/2 F A/2| B B/2 c d/2| e d/2 c d/2|\
 e3/2 z z/2| B3/2 c3/2| B3/2 A- G/2| E G/2 A F/2| G B/2- A B/2| G B/2 F D/2|\
 D3/2 z z/2|
